packages/sources/icons/src/vitamix/calendar-2-line.svg

<svg width="16" height="16" viewBox="0 0 16 16" xmlns="http://www.w3.org/2000/svg"><path fill-rule="evenodd" clip-rule="evenodd" d="M14.0002 2.66671H11.3335V1.33337H10.0002V2.66671H6.00016V1.33337H4.66683V2.66671H2.00016C1.63197 2.66671 1.3335 2.96518 1.3335 3.33337V14C1.3335 14.3682 1.63197 14.6667 2.00016 14.6667H14.0002C14.3684 14.6667 14.6668 14.3682 14.6668 14V3.33337C14.6668 2.96518 14.3684 2.66671 14.0002 2.66671ZM5.3335 8.66671V7.33337H4.00016V8.66671H5.3335ZM5.3335 10V11.3334H4.00016V10H5.3335ZM8.66683 7.33337H7.3335V8.66671H8.66683V7.33337ZM7.3335 10H8.66683V11.3334H7.3335V10ZM12.0002 8.66671V7.33337H10.6668V8.66671H12.0002ZM12.0002 10V11.3334H10.6668V10H12.0002ZM6.00016 4.00004H10.0002V5.33337H11.3335V4.00004H13.3335V13.3267H2.66683V4.00004H4.66683V5.33337H6.00016V4.00004Z"/></svg>

<svg width="16" height="16" xmlns="http://www.w3.org/2000/svg"><path fill-rule="evenodd" clip-rule="evenodd" d="M14 2.667h-2.667V1.333H10v1.334H6V1.333H4.667v1.334H2a.667.667 0 0 0-.667.666V14c0 .368.299.667.667.667h12a.667.667 0 0 0 .667-.667V3.333A.667.667 0 0 0 14 2.667Zm-8.667 6V7.333H4v1.334h1.333Zm0 1.333v1.333H4V10h1.333Zm3.334-2.667H7.333v1.334h1.334V7.333ZM7.333 10h1.334v1.333H7.333V10ZM12 8.667V7.333h-1.333v1.334H12ZM12 10v1.333h-1.333V10H12ZM6 4h4v1.333h1.333V4h2v9.327H2.667V4h2v1.333H6V4Z"/></svg>
